public/resources/img/icons/google-forms.svg

<?xml version="1.0" encoding="UTF-8"?>
<svg width="48px" height="66px" viewBox="0 0 48 66" version="1.1" xmlns="http://www.w3.org/2000/svg" xmlns:xlink="http://www.w3.org/1999/xlink">
    <!-- Generator: Sketch 54.1 (76490) - https://sketchapp.com -->
    <title>Forms-icon</title>
    <desc>Created with Sketch.</desc>
    <defs>
        <path d="M29.5833333,0 L4.4375,0 C1.996875,0 0,1.996875 0,4.4375 L0,60.6458333 C0,63.0864583 1.996875,65.0833333 4.4375,65.0833333 L42.8958333,65.0833333 C45.3364583,65.0833333 47.3333333,63.0864583 47.3333333,60.6458333 L47.3333333,17.75 L29.5833333,0 Z" id="path-1"></path>
        <path d="M29.5833333,0 L4.4375,0 C1.996875,0 0,1.996875 0,4.4375 L0,60.6458333 C0,63.0864583 1.996875,65.0833333 4.4375,65.0833333 L42.8958333,65.0833333 C45.3364583,65.0833333 47.3333333,63.0864583 47.3333333,60.6458333 L47.3333333,17.75 L29.5833333,0 Z" id="path-3"></path>
        <path d="M29.5833333,0 L4.4375,0 C1.996875,0 0,1.996875 0,4.4375 L0,60.6458333 C0,63.0864583 1.996875,65.0833333 4.4375,65.0833333 L42.8958333,65.0833333 C45.3364583,65.0833333 47.3333333,63.0864583 47.3333333,60.6458333 L47.3333333,17.75 L29.5833333,0 Z" id="path-5"></path>
        <linearGradient x1="50.0053945%" y1="8.58633094%" x2="50.0053945%" y2="100.013939%" id="linearGradient-7">
            <stop stop-color="#311B92" stop-opacity="0.2" offset="0%"></stop>
            <stop stop-color="#311B92" stop-opacity="0.02" offset="100%"></stop>
        </linearGradient>
        <path d="M29.5833333,0 L4.4375,0 C1.996875,0 0,1.996875 0,4.4375 L0,60.6458333 C0,63.0864583 1.996875,65.0833333 4.4375,65.0833333 L42.8958333,65.0833333 C45.3364583,65.0833333 47.3333333,63.0864583 47.3333333,60.6458333 L47.3333333,17.75 L29.5833333,0 Z" id="path-8"></path>
        <path d="M29.5833333,0 L4.4375,0 C1.996875,0 0,1.996875 0,4.4375 L0,60.6458333 C0,63.0864583 1.996875,65.0833333 4.4375,65.0833333 L42.8958333,65.0833333 C45.3364583,65.0833333 47.3333333,63.0864583 47.3333333,60.6458333 L47.3333333,17.75 L29.5833333,0 Z" id="path-10"></path>
        <path d="M29.5833333,0 L4.4375,0 C1.996875,0 0,1.996875 0,4.4375 L0,60.6458333 C0,63.0864583 1.996875,65.0833333 4.4375,65.0833333 L42.8958333,65.0833333 C45.3364583,65.0833333 47.3333333,63.0864583 47.3333333,60.6458333 L47.3333333,17.75 L29.5833333,0 Z" id="path-12"></path>
        <path d="M29.5833333,0 L4.4375,0 C1.996875,0 0,1.996875 0,4.4375 L0,60.6458333 C0,63.0864583 1.996875,65.0833333 4.4375,65.0833333 L42.8958333,65.0833333 C45.3364583,65.0833333 47.3333333,63.0864583 47.3333333,60.6458333 L47.3333333,17.75 L29.5833333,0 Z" id="path-14"></path>
        <radialGradient cx="3.16804688%" cy="2.71744318%" fx="3.16804688%" fy="2.71744318%" r="161.248516%" gradientTransform="translate(0.031680,0.027174),scale(1.000000,0.727273),translate(-0.031680,-0.027174)" id="radialGradient-16">
            <stop stop-color="#FFFFFF" stop-opacity="0.1" offset="0%"></stop>
            <stop stop-color="#FFFFFF" stop-opacity="0" offset="100%"></stop>
        </radialGradient>
    </defs>
    <g id="Page-1" stroke="none" stroke-width="1" fill="none" fill-rule="evenodd">
        <g id="Consumer-Apps-Forms-Large-VD-R8" transform="translate(-449.000000, -452.000000)">
            <g id="Hero" transform="translate(0.000000, 63.000000)">
                <g id="Personal" transform="translate(277.000000, 299.000000)">
                    <g id="Forms-icon" transform="translate(172.000000, 90.000000)">
                        <g id="Group">
                            <g id="Clipped">
                                <mask id="mask-2" fill="white">
                                    <use xlink:href="#path-1"></use>
                                </mask>
                                <g id="SVGID_20_"></g>
                                <path d="M29.5833333,0 L4.4375,0 C1.996875,0 0,1.996875 0,4.4375 L0,60.6458333 C0,63.0864583 1.996875,65.0833333 4.4375,65.0833333 L42.8958333,65.0833333 C45.3364583,65.0833333 47.3333333,63.0864583 47.3333333,60.6458333 L47.3333333,17.75 L36.9791667,10.3541667 L29.5833333,0 Z" id="Path" fill="#673AB7" fill-rule="nonzero" mask="url(#mask-2)"></path>
                            </g>
                            <g id="Clipped">
                                <mask id="mask-4" fill="white">
                                    <use xlink:href="#path-3"></use>
                                </mask>
                                <g id="SVGID_20_"></g>
                                <path d="M19.2291667,50.2916667 L35.5,50.2916667 L35.5,47.3333333 L19.2291667,47.3333333 L19.2291667,50.2916667 Z M19.2291667,32.5416667 L19.2291667,35.5 L35.5,35.5 L35.5,32.5416667 L19.2291667,32.5416667 Z M15.53125,34.0208333 C15.53125,35.2448438 14.5365104,36.2395833 13.3125,36.2395833 C12.0884896,36.2395833 11.09375,35.2448438 11.09375,34.0208333 C11.09375,32.7968229 12.0884896,31.8020833 13.3125,31.8020833 C14.5365104,31.8020833 15.53125,32.7968229 15.53125,34.0208333 Z M15.53125,41.4166667 C15.53125,42.6406771 14.5365104,43.6354167 13.3125,43.6354167 C12.0884896,43.6354167 11.09375,42.6406771 11.09375,41.4166667 C11.09375,40.1926563 12.0884896,39.1979167 13.3125,39.1979167 C14.5365104,39.1979167 15.53125,40.1926563 15.53125,41.4166667 Z M15.53125,48.8125 C15.53125,50.0365104 14.5365104,51.03125 13.3125,51.03125 C12.0884896,51.03125 11.09375,50.0365104 11.09375,48.8125 C11.09375,47.5884896 12.0884896,46.59375 13.3125,46.59375 C14.5365104,46.59375 15.53125,47.5884896 15.53125,48.8125 Z M19.2291667,42.8958333 L35.5,42.8958333 L35.5,39.9375 L19.2291667,39.9375 L19.2291667,42.8958333 Z" id="Shape" fill="#F1F1F1" fill-rule="nonzero" mask="url(#mask-4)"></path>
                            </g>
                            <g id="Clipped">
                                <mask id="mask-6" fill="white">
                                    <use xlink:href="#path-5"></use>
                                </mask>
                                <g id="SVGID_20_"></g>
                                <polygon id="Path" fill="url(#linearGradient-7)" fill-rule="nonzero" mask="url(#mask-6)" points="30.8813021 16.4520313 47.3333333 32.9003646 47.3333333 17.75"></polygon>
                            </g>
                            <g id="Clipped">
                                <mask id="mask-9" fill="white">
                                    <use xlink:href="#path-8"></use>
                                </mask>
                                <g id="SVGID_20_"></g>
                                <g id="Group" mask="url(#mask-9)">
                                    <g transform="translate(26.625000, -2.958333)">
                                        <path d="M2.95833333,2.95833333 L2.95833333,16.2708333 C2.95833333,18.7225521 4.94411458,20.7083333 7.39583333,20.7083333 L20.7083333,20.7083333 L2.95833333,2.95833333 Z" id="Path" fill="#B39DDB" fill-rule="nonzero"></path>
                                    </g>
                                </g>
                            </g>
                            <g id="Clipped">
                                <mask id="mask-11" fill="white">
                                    <use xlink:href="#path-10"></use>
                                </mask>
                                <g id="SVGID_20_"></g>
                                <path d="M4.4375,0 C1.996875,0 0,1.996875 0,4.4375 L0,4.80729167 C0,2.36666667 1.996875,0.369791667 4.4375,0.369791667 L29.5833333,0.369791667 L29.5833333,0 L4.4375,0 Z" id="Path" fill-opacity="0.2" fill="#FFFFFF" fill-rule="nonzero" mask="url(#mask-11)"></path>
                            </g>
                            <g id="Clipped">
                                <mask id="mask-13" fill="white">
                                    <use xlink:href="#path-12"></use>
                                </mask>
                                <g id="SVGID_20_"></g>
                                <path d="M42.8958333,64.7135417 L4.4375,64.7135417 C1.996875,64.7135417 0,62.7166667 0,60.2760417 L0,60.6458333 C0,63.0864583 1.996875,65.0833333 4.4375,65.0833333 L42.8958333,65.0833333 C45.3364583,65.0833333 47.3333333,63.0864583 47.3333333,60.6458333 L47.3333333,60.2760417 C47.3333333,62.7166667 45.3364583,64.7135417 42.8958333,64.7135417 Z" id="Path" fill-opacity="0.2" fill="#311B92" fill-rule="nonzero" mask="url(#mask-13)"></path>
                            </g>
                            <g id="Clipped">
                                <mask id="mask-15" fill="white">
                                    <use xlink:href="#path-14"></use>
                                </mask>
                                <g id="SVGID_20_"></g>
                                <path d="M34.0208333,17.75 C31.5691146,17.75 29.5833333,15.7642187 29.5833333,13.3125 L29.5833333,13.6822917 C29.5833333,16.1340104 31.5691146,18.1197917 34.0208333,18.1197917 L47.3333333,18.1197917 L47.3333333,17.75 L34.0208333,17.75 Z" id="Path" fill-opacity="0.1" fill="#311B92" fill-rule="nonzero" mask="url(#mask-15)"></path>
                            </g>
                        </g>
                        <path d="M29.5833333,0 L4.4375,0 C1.996875,0 0,1.996875 0,4.4375 L0,60.6458333 C0,63.0864583 1.996875,65.0833333 4.4375,65.0833333 L42.8958333,65.0833333 C45.3364583,65.0833333 47.3333333,63.0864583 47.3333333,60.6458333 L47.3333333,17.75 L29.5833333,0 Z" id="Path" fill="url(#radialGradient-16)" fill-rule="nonzero"></path>
                    </g>
                </g>
            </g>
        </g>
    </g>
</svg>

<svg width="48" height="66" xmlns="http://www.w3.org/2000/svg" xmlns:xlink="http://www.w3.org/1999/xlink"><defs><path d="M29.583 0H4.438A4.45 4.45 0 0 0 0 4.438v56.208a4.45 4.45 0 0 0 4.438 4.437h38.458a4.45 4.45 0 0 0 4.437-4.437V17.75L29.583 0z" id="a"/><path d="M29.583 0H4.438A4.45 4.45 0 0 0 0 4.438v56.208a4.45 4.45 0 0 0 4.438 4.437h38.458a4.45 4.45 0 0 0 4.437-4.437V17.75L29.583 0z" id="c"/><path d="M29.583 0H4.438A4.45 4.45 0 0 0 0 4.438v56.208a4.45 4.45 0 0 0 4.438 4.437h38.458a4.45 4.45 0 0 0 4.437-4.437V17.75L29.583 0z" id="e"/><path d="M29.583 0H4.438A4.45 4.45 0 0 0 0 4.438v56.208a4.45 4.45 0 0 0 4.438 4.437h38.458a4.45 4.45 0 0 0 4.437-4.437V17.75L29.583 0z" id="h"/><path d="M29.583 0H4.438A4.45 4.45 0 0 0 0 4.438v56.208a4.45 4.45 0 0 0 4.438 4.437h38.458a4.45 4.45 0 0 0 4.437-4.437V17.75L29.583 0z" id="j"/><path d="M29.583 0H4.438A4.45 4.45 0 0 0 0 4.438v56.208a4.45 4.45 0 0 0 4.438 4.437h38.458a4.45 4.45 0 0 0 4.437-4.437V17.75L29.583 0z" id="l"/><path d="M29.583 0H4.438A4.45 4.45 0 0 0 0 4.438v56.208a4.45 4.45 0 0 0 4.438 4.437h38.458a4.45 4.45 0 0 0 4.437-4.437V17.75L29.583 0z" id="n"/><radialGradient cx="3.168%" cy="2.717%" fx="3.168%" fy="2.717%" r="161.249%" gradientTransform="matrix(1 0 0 .72727 0 .007)" id="p"><stop stop-color="#FFF" stop-opacity=".1" offset="0%"/><stop stop-color="#FFF" stop-opacity="0" offset="100%"/></radialGradient><linearGradient x1="50.005%" y1="8.586%" x2="50.005%" y2="100.014%" id="f"><stop stop-color="#311B92" stop-opacity=".2" offset="0%"/><stop stop-color="#311B92" stop-opacity=".02" offset="100%"/></linearGradient></defs><g fill="none" fill-rule="evenodd"><g><mask id="b" fill="#fff"><use xlink:href="#a"/></mask><path d="M29.583 0H4.438A4.45 4.45 0 0 0 0 4.438v56.208a4.45 4.45 0 0 0 4.438 4.437h38.458a4.45 4.45 0 0 0 4.437-4.437V17.75L36.98 10.354 29.583 0z" fill="#673AB7" fill-rule="nonzero" mask="url(#b)"/></g><g><mask id="d" fill="#fff"><use xlink:href="#c"/></mask><path d="M19.23 50.292H35.5v-2.959H19.23v2.959zm0-17.75V35.5H35.5v-2.958H19.23zM15.53 34.02a2.22 2.22 0 0 1-2.219 2.219 2.22 2.22 0 0 1-2.218-2.22 2.22 2.22 0 0 1 2.219-2.218 2.22 2.22 0 0 1 2.218 2.219zm0 7.396a2.22 2.22 0 0 1-2.219 2.218 2.22 2.22 0 0 1-2.218-2.218 2.22 2.22 0 0 1 2.219-2.22 2.22 2.22 0 0 1 2.218 2.22zm0 7.395a2.22 2.22 0 0 1-2.219 2.22 2.22 2.22 0 0 1-2.218-2.22 2.22 2.22 0 0 1 2.219-2.218 2.22 2.22 0 0 1 2.218 2.218zm3.698-5.916H35.5v-2.959H19.23v2.959z" fill="#F1F1F1" fill-rule="nonzero" mask="url(#d)"/></g><g><mask id="g" fill="#fff"><use xlink:href="#e"/></mask><path fill="url(#f)" fill-rule="nonzero" mask="url(#g)" d="M30.881 16.452 47.333 32.9V17.75z"/></g><g><mask id="i" fill="#fff"><use xlink:href="#h"/></mask><g mask="url(#i)"><path d="M29.583 0v13.313a4.436 4.436 0 0 0 4.438 4.437h13.312L29.583 0z" fill="#B39DDB" fill-rule="nonzero"/></g></g><g><mask id="k" fill="#fff"><use xlink:href="#j"/></mask><path d="M4.438 0A4.45 4.45 0 0 0 0 4.438v.37A4.45 4.45 0 0 1 4.438.37h25.145V0H4.438z" fill-opacity=".2" fill="#FFF" fill-rule="nonzero" mask="url(#k)"/></g><g><mask id="m" fill="#fff"><use xlink:href="#l"/></mask><path d="M42.896 64.714H4.437A4.45 4.45 0 0 1 0 60.276v.37a4.45 4.45 0 0 0 4.438 4.437h38.458a4.45 4.45 0 0 0 4.437-4.437v-.37a4.45 4.45 0 0 1-4.437 4.438z" fill-opacity=".2" fill="#311B92" fill-rule="nonzero" mask="url(#m)"/></g><g><mask id="o" fill="#fff"><use xlink:href="#n"/></mask><path d="M34.02 17.75a4.436 4.436 0 0 1-4.437-4.438v.37a4.436 4.436 0 0 0 4.438 4.438h13.312v-.37H34.021z" fill-opacity=".1" fill="#311B92" fill-rule="nonzero" mask="url(#o)"/></g><path d="M29.583 0H4.438A4.45 4.45 0 0 0 0 4.438v56.208a4.45 4.45 0 0 0 4.438 4.437h38.458a4.45 4.45 0 0 0 4.437-4.437V17.75L29.583 0z" fill="url(#p)" fill-rule="nonzero"/></g></svg>
